X:1
T:He's Had No Lovin' For A Long Time
T:He's Had No Lovin' For A Long Time
T:Music by Maceo Pinkard 
T:Words by Wm Tracey 
T:1919
T:1919
T:1919
T:1919
C:Macio Pinkard
Z:Wm Tracey
Z:1919
%%score 1 { 2 | 3 }
L:1/8
Q:1/4=114
M:2/4
K:C
V:1 treble nm="Voice"
V:2 treble nm="Piano"
V:3 bass 
V:1
"^Marcia moderato" z z || z4 | z4 | z4 | z4 | z4 | z4 | z4 | z4 |:"_Vamp" z4 | z4 | z4 | z4 :| %13
w: |||||||||||||
w: |||||||||||||
w: |||||||||||||
 EG AB- | B A2 E | FG A(B | B3) E | FG A(B | B2) G2 | (A4 | A4) | B^A B^G- | G E2 E | cB c(A | %24
w: Now that it's o-|* ver and|peace is de- clared,-|* Our|nat- ion is wild-|* with|joy.|_|Ev- 'ry young girl-|* ie is|get- ting pre- pared,|
w: |||||||||||
w: Fix up the par|* lor, get|ev- 'ry- thing set,|_ And|put on his fav-|'rite *|gown.|_|Give him the wel-|* come a|he- ro should get|
 A3) A | dc B(A | A2) B2 | (G4 | G) z G^G | A2 ^G2 | A2 ^A2 | (B4 | B) z AB | c2 c2 | B2 D2 | (G4 | %36
w: _ To|wel- come her sold-|* ier|boy,|_ Lis- ten,|girls, he's|been true|blue|_ Now the|rest is|up to|you.|
w: ||||||||||||
w: _ The|day he ar- rives|_ in|town.|_ He's been|gone a|long, long|while,|_ Meet him|with a|great big|smile.|
 G) z z2 || z z AB |: cB cB | cB Ac | B2 A2 | G3 E | FE FE | FE D((G | G4) | G2) z E | FE FE | %47
w: _|Oh you|know he's had no|lov- in' for a|long long|time He's|got to have a|lot of it now|_|* Just|hide a- way the|
w: |||||||||||
w: _|Oh you|know he's had no|lov- in' for a|long, long|time. He's|got to have a|lot of it now.|_|* To|thank you for the|
 DE FG | E2 G(c | c3) B | cB cB | AB cd | B2 A(G | G2) z A | _BA B(G | G) c2 _B | A^G A(F | F3) B | %58
w: ser- vice flag you|waved for him,|_ And|give him all the|kiss- es that you've|saved for him|_ Since|he went a- way|_ He's been|bus- y each day|_ His|
w: |||||||||||
w: man- y nights you|prayed for him|_ He|ev- en wore those|aw- ful socks you|made for him|_ He's|trav- el- ing miles|_ just for|one of your smiles|* For|
 cB c(A | A) d2 c | (B4 | B) z z2 | z c cB | BA AB | AG B(A | A) B3 | z c cB | BA AB | AG B(A | %69
w: med- als will tell|_ you just|how|_|And just to|make up for the|fun he's been miss|_ in'|Your boy's en-|tit- led to some|hug- in' and kiss|
w: |||||||||||
w: he has been true-|* to his|vow|_|They're pret- ty|girls in France but|you need- n't wor|_ ry,|You know that|he'll for- get them|all in a hur-|
 A) G3 | z B cB | cB Ac | B2 A2 | G2 G^G | A^G AG | BA G2 |1 c2 z2 || z2 AB :|2 (c4 | c2) z2 |] %80
w: _ in'|He's had no|lov- in' for a|long, long|time, And he's|got to have a|lot of it|now.|'Cause he|now.|_|
w: |||||||||||
w: * ry,|He's had no|lov- in for a|long, long|time, And he's|got to have a|lot of it|now.|'Cause he|now.|_|
V:2
 z!f! G || [CEc][B,DB] [CEc][B,DB] | [CEc]B [C^FA]c | [B,B][FG] [A,A][DF] | [G,DFG]2 [CG][C^F^G] | %5
 [C^FA]^G [C=FA]^A | [DFB][DFA] [DFG]2 | [EGc](G/A/ GE) | !>!C2!sfz! !^![cegc'] z |: %9
 [G,CE][A,G] [A,EA][B,GB] | [B,GB] [CEc]2 [^A,E] | [B,F]G [CFA][DFB] | [DFB] [CFA]2 [B,FG] :| %13
 [G,CE][G,G] [A,EA][B,EB]- | [B,EB] [A,EA]2 [_B,E] | [B,F]G [A,FA][B,FB] | %16
 [B,FB][FG]/[FG]/ [FG][^A,E] | [_B,F]G [CFA]([=B,FB] | [B,FB])[FG] G[B,^D] | %19
 (A[CE]/_E/ [C=E][CE]/D/ | [CEA])[CE]/_E/ [C=E] z | [D^GB]^A [DGB][B,DG]- | [B,DG] [B,DE]2 E | %23
 [CEc][B,B] [CEc]c- | [CEc][CE]/[CE]/ [CE][CBc] | [D^Fd][EFc] [CFB]2 | [B,G]2 [C^FB]2 | %27
 ([B,G]2 [_B,^C]2 | [B,DB]2) [CG][C^F^G] | A[C^F] ^G[B,D] | A[CD] _B[C^F] | %31
 ([Dd][DG]/[DG]/ [DG][DA] | [B,B]) z AB | !>![EGc]2 !>![_EGc]2 | !>![D^FB]2 !>![CD]2 | %35
 [B,FG]2 G/G/!>![^A,^CG]/!>!G/ | [B,DG] z2 z || z2!p! [A,^FA]!f![B,=FB] |: %38
 [CEc][B,EB] [CEc][B,EB] | [CEc]B [C^FA]c | [B,B][FG] [A,A][DF] | [G,G][DF]/[DF]/ [DF][G,A,E] | %42
 [G,B,F]E [G,B,F]E | [A,B,F][G,B,E] [D,G,B,][G,CEG] | [G,CEG]2 ([G,B,F]2 | [G,CEG]) z ^A,E | %46
 [G,B,F]E [G,B,F]E | [F,G,D]E [G,B,F]G | [G,CE]2 [G,DG]([CEAc] | [CEAc])[EA]/[EA]/ [EA]B | %50
 [C^Fc]B [CFc]B | [CDA]B [C^Fc]d | [DFc]2 [DFA]([DFG] | [DFG])^F GA | [CE_B]A [CEB]([_B,CG] | %55
 [_B,CG]) [CEc]2 _B | [CFA]^G [CFA][A,CF] | [A,CF][A,C]/[A,C]/ [A,C]B | [C^Fc]B [CFc][CFA] | %59
 [C^FA] [D=Fd]2 [C^Fc] | ([B,FGB]4 | [B,FGB]) z z2 | z [CEc] [CEc][CEB] | [CGB]A [C^FA]B | %64
 [CFA][B,FG] [DFB]([CFA] | [CFA]) [B,FB]3 | z [CEc] [CEc][CB] | [CGB]A [C^FA]B | %68
 [CFA][B,FG] [DFB][CFA] | [CFA] [B,FG]3 | z [B,EB] [CEc][B,EB] | [CEc]A [^CFA]c | %72
 [B,B][FG] [A,A][DF] | [G,DFG]2 [CG][C^F^G] | [C^FA]^G [CFA]^A | [DFB][DFA] [DFG]2 |1 %76
 [EGc]G/A/ ([_B,FA]B/c/ || [B,FG]) z [A,^FA][B,=FB] :|2 [EGc]G/A/ GE | C2!sfz! !^![cegc'] z |] %80
V:3
 z2 || [C,,C,] z G,, z | [C,,C,] z [_E,,_E,]2 | [D,,D,]2 [C,,C,]2 | [B,,,B,,]2 [E,,E,][_E,,_E,] | %5
 [D,,D,]2 [D,,D,]2 | [G,,G,][A,,A,] [B,,B,]2 | [C,C](G,/A,/ G,E, | !>!C,2) !^![C,,C,] z |: %9
 [C,,C,] z G,, z | [C,,C,]2 [^C,,^C,]2 | [D,,D,] z G,,2 | [D,,D,] z G,,2 :| [C,,C,] z G,, z | %14
 [C,,C,]2 [^C,,^C,]2 | [D,,D,] z G,, z | [D,,D,]3 [^C,,^C,] | [D,,D,] z G,, z | %18
 [C,,C,]2 [B,,,_B,,]2 | [A,,,A,,]2 [G,,,G,,] z | [C,,C,] z G,, z | [E,,E,] z B,,[^G,,^G,] | %22
 [C,,C,] z [^G,,^G,]2 | [A,,A,] z [E,,E,] z | (A,,2 A,,)[_E,,_E,] | [E,,D,]2 [D,,D,][E,,E,]- | %26
 [E,,E,]2 [D,,D,]2 | [G,,D,]2 E,2 | [G,,F,] z [E,,E,][_E,,_E,] | [D,,D,]2 [^E,,^E,]2 | %30
 [^F,,^F,]2 [D,,D,]2 | [G,,G,][G,,G,] [^F,,^F,][=F,,=F,] | [E,,E,] z z2 | [A,,A,]2 [A,,A,]2 | %34
 D,E, ^F,2 | [G,,G,] z ([G,,G,]2 | [G,,G,]) z z2 || z4 |: [C,,C,] z G,, z | [C,,C,] z [_E,,_E,]2 | %40
 [D,,D,]2 [C,,C,]2 | [_B,,,B,,]2 z [^C,,^C,] | [D,,D,] z G,, z | [D,,D,] z G,, z | %44
 [C,,C,]2 [D,,D,]2 | [E,,E,]2 [^C,,^C,]2 | [D,,D,] z G,, z | [B,,,B,,] z G,, z | %48
 [C,,C,]2 [B,,,A,,]([A,,,A,,] | [A,,,A,,]2 [A,,,A,,]) z | [A,,A,] z [D,,D,] z | %51
 [^F,,^F,] z [D,,D,] z | [G,,G,]2 [A,,A,]([B,,B,] | [B,,B,]) z z2 | [G,,G,] z [C,,C,] z | %55
 [F,,F,] z [C,,C,] z | [F,,F,] z [C,,C,] z | (F,,E, [F,,E,])_E, | [D,,D,] z A,,2 | %59
 [D,,D,] z [A,,A,] z | [G,,G,]^C, E,D, | [G,,G,]G,, A,,B,, | C, z G,,2 | [E,,E,]2 [_E,,_E,]2 | %64
 [D,,D,] z G,, z | [D,,D,][^C,,^C,] [D,,D,][_E,,_E,] | [E,,E,] z G,, z | [E,,E,]2 [_E,,_E,]2 | %68
 [D,,D,] z G,, z | [D,,D,]G,, A,,B,, | [C,,C,] z G,, z | [C,,C,] z [_E,,_E,] z | %72
 [D,,D,]2 [C,,C,]2 | [B,,,B,,]2 [E,,E,][_E,,_E,] | [D,,D,]2 [D,,D,]2 | [G,,G,][A,,A,] [B,,B,]2 |1 %76
 [C,C] z ([^C,,^C,]2 || [D,,D,]) z z2 :|2 [C,C]G,/A,/ G,E, | C,2 [C,,C,] z |] %80

